packages/dnb-ui-lib/assets/icons/heart_medium.svg

<svg width="24" height="24" viewBox="0 0 24 24" fill="none" xmlns="http://www.w3.org/2000/svg">
<path d="M11.9998 21.5L2.41117 11.5933C1.56914 10.7592 1.01351 9.68376 0.823031 8.51937C0.632556 7.35497 0.816899 6.16072 1.34993 5.10591C1.75185 4.30958 2.33907 3.61926 3.06319 3.09186C3.78731 2.56446 4.6276 2.21507 5.5148 2.0725C6.40199 1.92993 7.31069 1.99826 8.166 2.27185C9.0213 2.54544 9.79872 3.01647 10.4342 3.6461L11.9998 5.19692L13.5654 3.6461C14.201 3.01647 14.9786 2.54547 15.834 2.27188C16.6895 1.9983 17.5983 1.92998 18.4856 2.07254C19.3729 2.2151 20.2134 2.56447 20.9377 3.09185C21.6619 3.61924 22.2494 4.30955 22.6515 5.10591V5.10591C23.1837 6.16104 23.3675 7.35526 23.1767 8.51954C22.9859 9.68381 22.4302 10.7591 21.5884 11.5933L11.9998 21.5Z" stroke="black" stroke-width="1.5" stroke-linecap="round" stroke-linejoin="round"/>
</svg>

<svg width="24" height="24" viewBox="0 0 24 24" fill="none" xmlns="http://www.w3.org/2000/svg"><path d="M12 21.5l-9.59-9.907A5.6 5.6 0 01.823 8.52a5.571 5.571 0 01.527-3.413 5.632 5.632 0 011.713-2.014 5.723 5.723 0 015.103-.82 5.682 5.682 0 012.268 1.374L12 5.196l1.565-1.55a5.683 5.683 0 012.269-1.374 5.726 5.726 0 015.104.82 5.634 5.634 0 011.713 2.014v0a5.575 5.575 0 01.526 3.414 5.604 5.604 0 01-1.589 3.073L12 21.5z" stroke="#000" stroke-width="1.5" stroke-linecap="round" stroke-linejoin="round"/></svg>
